storage/app/icons/phosphoricons/bold/projector-screen-bold.svg

<svg xmlns="http://www.w3.org/2000/svg" fill="currentColor" viewBox="0 0 256 256"><path d="M236 72V48a20 20 0 0 0-20-20H40a20 20 0 0 0-20 20v24a20 20 0 0 0 16 19.6V164h-4a12 12 0 0 0 0 24h84v23.22a24 24 0 1 0 24 0V188h84a12 12 0 0 0 0-24h-4V91.6A20 20 0 0 0 236 72M44 52h168v16H44Zm16 112V92h136v72Z"/></svg>

<svg xmlns="http://www.w3.org/2000/svg" viewBox="0 0 256 256" fill="currentColor"><path d="M236,72V48a20,20,0,0,0-20-20H40A20,20,0,0,0,20,48V72A20,20,0,0,0,36,91.6V164H32a12,12,0,0,0,0,24h84v23.22a24,24,0,1,0,24,0V188h84a12,12,0,0,0,0-24h-4V91.6A20,20,0,0,0,236,72ZM44,52H212V68H44ZM60,164V92H196v72Z"/></svg>
